dist/svg/box-out.svg

<!-- Generated by Trend Micro Style Portal -->
<svg version="1.1" xmlns="http://www.w3.org/2000/svg" width="16" height="16" viewBox="0 0 16 16">
  <title>box-out</title>
  <path fill="rgb(34,34,34)" d="M10 13v-3h-5v-4h5v-3l5 5zM8 2h-6v12h6v1h-6c-0.552 0-1-0.448-1-1v0-12c0-0.552 0.448-1 1-1v0h6v1z"></path>
</svg>

<svg width="16" height="16" viewBox="0 0 16 16" fill="rgb(34, 34, 34)" xmlns="http://www.w3.org/2000/svg"><title>box-out</title><path d="M10 13V10H5V6H10V3L15 8L10 13ZM8 2H2V14H8V15H2C1.448 15 1 14.552 1 14V2C1 1.448 1.448 1 2 1H8V2Z" fill="rgb(34, 34, 34)" fill-opacity="1.00"/></svg>
